X:57
T: ES WAREN EINMAL DREI REUTER GEFANGEN
N: Z0058
O: Europa, Mitteleuropa, Deutschland
R: Sagen - Lied, Romanze, Tod
M: 4/4
L: 1/8
K: C
G,2 | C2CCC2E2 | C2G,G,E,2
CD | E3CEDDB, | C4z2
CD | E2EEFEDC | D2B,2G,2
G,B, | DDDFEDCB, | C2G,2E,2
CD | E3CEDDB, | C4z2

@@@ Tune index: 9815
